Newaita-dark/apps/32/com.github.bitseater.weather.svg

<svg height="32pt" viewBox="0 0 32 32" width="32pt" xmlns="http://www.w3.org/2000/svg" xmlns:xlink="http://www.w3.org/1999/xlink"><linearGradient id="a" gradientTransform="matrix(.00381716 0 0 .062506 14.901909 13.438784)" gradientUnits="userSpaceOnUse" x1="254" x2="254" y1="233.5" y2="254.66667"><stop offset="0" stop-opacity=".27451"/><stop offset="1" stop-opacity="0"/></linearGradient><linearGradient id="b"><stop offset="0" stop-opacity=".313725"/><stop offset=".222222" stop-opacity=".27451"/><stop offset="1" stop-opacity="0"/></linearGradient><radialGradient id="c" cx="450.90894" cy="189.57936" gradientTransform="matrix(.00000017 -.0781325 -.140638 -.0000001 42.869347 63.595334)" gradientUnits="userSpaceOnUse" r="21.166656" xlink:href="#b"/><radialGradient id="d" cx="450.90894" cy="189.57936" gradientTransform="matrix(-.00000017 .0781325 .140638 .0000001 -11.116311 -7.527479)" gradientUnits="userSpaceOnUse" r="21.166656" xlink:href="#b"/><radialGradient id="e" cx="450.90894" cy="189.57936" gradientTransform="matrix(-.00000017 -.0781325 .140638 -.0000001 -11.116311 63.595334)" gradientUnits="userSpaceOnUse" r="21.166656" xlink:href="#b"/><radialGradient id="f" cx="450.90894" cy="189.57936" gradientTransform="matrix(.00000017 .0781325 -.140638 .0000001 42.869345 -7.527479)" gradientUnits="userSpaceOnUse" r="21.166656" xlink:href="#b"/><linearGradient id="g" gradientUnits="userSpaceOnUse" x1="15.87648" x2="15.87648" y1="28.0338647916" y2="2.89610346856"><stop offset="0" stop-color="#bdbdbd"/><stop offset="1" stop-color="#e0e0e0"/></linearGradient><linearGradient id="h" gradientUnits="userSpaceOnUse" x1="15.87648" x2="15.87648" y1="28.0338647916" y2="2.89610346856"><stop offset="0" stop-color="#5c6bc0"/><stop offset="1" stop-color="#7986cb"/></linearGradient><linearGradient id="i" gradientUnits="userSpaceOnUse" x1="15.87648" x2="15.87648" y1="28.0338647916" y2="2.89610363394"><stop offset="0" stop-color="#f44336"/><stop offset="1" stop-color="#ef5350"/></linearGradient><path d="m15.214844 28.035156h1.324218v1.320313h-1.324218zm0 0" fill="url(#a)"/><path d="m16.539062 28.035156h2.644532v-1.324218h-2.644532zm0 0" fill="url(#c)"/><path d="m15.214844 28.035156h-2.644532v1.320313h2.644532zm0 0" fill="url(#d)"/><path d="m15.214844 28.035156h-2.644532v-1.324218h2.644532zm0 0" fill="url(#e)"/><path d="m16.539062 28.035156h2.644532v1.320313h-2.644532zm0 0" fill="url(#f)"/><path d="m15.875 2.894531c-1.832031 0-3.304688 1.476563-3.304688 3.308594v8.066406c-2.359374 1.199219-3.96875 3.648438-3.96875 6.488281 0 4.03125 3.242188 7.277344 7.273438 7.277344s7.277344-3.246094 7.277344-7.277344c0-2.839843-1.609375-5.289062-3.96875-6.488281v-8.066406c0-1.832031-1.476563-3.308594-3.308594-3.308594zm0 0" fill="url(#g)"/><path d="m15.875 4.21875c-1.097656 0-1.984375.886719-1.984375 1.984375v8.9375c-2.316406.8125-3.96875 3.015625-3.96875 5.617187 0 3.296876 2.65625 5.953126 5.953125 5.953126 3.300781 0 5.957031-2.65625 5.957031-5.953126 0-2.601562-1.652343-4.804687-3.972656-5.617187v-8.9375c0-1.097656-.882813-1.984375-1.984375-1.984375zm0 0" fill="url(#h)"/><path d="m13.890625 12.824219v2.316406c-2.316406.8125-3.96875 3.015625-3.96875 5.617187 0 3.296876 2.65625 5.953126 5.953125 5.953126 3.300781 0 5.957031-2.65625 5.957031-5.953126 0-2.601562-1.652343-4.804687-3.972656-5.617187v-2.316406c-.992187-.996094-2.976563-.996094-3.96875 0zm0 0" fill="url(#i)"/><path d="m15.875 2.894531c-1.832031 0-3.304688 1.476563-3.304688 3.308594v.25c0-1.832031 1.472657-3.308594 3.304688-3.308594s3.308594 1.476563 3.308594 3.308594v-.25c0-1.832031-1.476563-3.308594-3.308594-3.308594zm-3.304688 11.375c-2.359374 1.199219-3.96875 3.648438-3.96875 6.488281v.121094c.046876-2.785156 1.640626-5.179687 3.96875-6.363281zm6.613282 0v.246094c2.324218 1.183594 3.921875 3.578125 3.96875 6.363281 0-.039062 0-.082031 0-.121094 0-2.839843-1.609375-5.289062-3.96875-6.488281zm0 0" fill="#fff" fill-opacity=".960784"/><path d="m8.601562 20.578125v.179687c0 4.03125 3.242188 7.277344 7.273438 7.277344s7.277344-3.246094 7.277344-7.277344c0-.058593 0-.121093 0-.179687-.101563 3.941406-3.308594 7.085937-7.277344 7.085937-3.964844 0-7.171875-3.144531-7.273438-7.085937zm0 0" fill-opacity=".235294"/><path d="m959.908345 175.022658c-110.776824 0-199.82344 89.282814-199.82344 200.059638v487.748704c-142.663543 72.512762-239.977086 220.608857-239.977086 392.324745 0 243.756253 196.044273 440.036724 439.800526 440.036724s440.036725-196.280471 440.036725-440.036724c0-171.715888-97.313543-319.811983-239.977087-392.324745v-487.748704c0-110.776824-89.282813-200.059638-200.059638-200.059638zm0 0" fill="none" stroke="#212121" stroke-linecap="round" stroke-linejoin="round" stroke-width="11.338583" transform="scale(.016538)"/><path d="m9.925781 20.910156c-.003906.046875-.003906.09375-.003906.140625 0 3.296875 2.65625 5.953125 5.953125 5.953125 3.300781 0 5.957031-2.65625 5.957031-5.953125 0-.046875-.003906-.09375-.003906-.140625-.074219 3.234375-2.699219 5.8125-5.953125 5.8125-3.25 0-5.875-2.578125-5.949219-5.8125zm0 0" fill="#fff7f7"/><path d="m15.875 4.21875c-1.097656 0-1.984375.886719-1.984375 1.984375v.332031c0-1.101562.886719-1.984375 1.984375-1.984375 1.101562 0 1.984375.882813 1.984375 1.984375v-.332031c0-1.097656-.882813-1.984375-1.984375-1.984375zm-1.984375 10.921875c-2.316406.8125-3.96875 3.015625-3.96875 5.617187 0 .054688 0 .113282.003906.167969.066407-2.53125 1.699219-4.660156 3.964844-5.457031zm3.96875 0v.328125c2.269531.796875 3.902344 2.925781 3.96875 5.457031 0-.054687.003906-.113281.003906-.167969 0-2.601562-1.652343-4.804687-3.972656-5.617187zm0 0" fill-opacity=".235294"/><path d="m959.908345 255.093753c-66.371615 0-119.988543 53.616928-119.988543 119.988543v540.420841c-140.065366 49.129167-239.977086 182.344793-239.977086 339.652608 0 199.351044 160.614585 359.96563 359.965629 359.96563 199.587243 0 360.201828-160.614586 360.201828-359.96563 0-157.307815-99.91172-290.523441-240.213284-339.652608v-540.420841c0-66.371615-53.38073-119.988543-119.988544-119.988543zm0 0" fill="none" stroke="#212121" stroke-linecap="round" stroke-linejoin="round" stroke-width="11.338583" transform="scale(.016538)"/></svg>

<?xml version="1.0" encoding="UTF-8"?>
<svg xmlns="http://www.w3.org/2000/svg" xmlns:xlink="http://www.w3.org/1999/xlink" width="32pt" height="32pt" viewBox="0 0 32 32" version="1.1">
<defs>
<linearGradient id="linear0" gradientUnits="userSpaceOnUse" x1="254" y1="233.5" x2="254" y2="254.66667" gradientTransform="matrix(0.00381716,0,0,0.062506,14.901909,13.438784)">
<stop offset="0" style="stop-color:rgb(0%,0%,0%);stop-opacity:0.27451;"/>
<stop offset="1" style="stop-color:rgb(0%,0%,0%);stop-opacity:0;"/>
</linearGradient>
<radialGradient id="radial0" gradientUnits="userSpaceOnUse" cx="450.90894" cy="189.57936" fx="450.90894" fy="189.57936" r="21.166656" gradientTransform="matrix(0.00000017417,-0.0781325,-0.140638,-0.000000101539,42.869347,63.595334)">
<stop offset="0" style="stop-color:rgb(0%,0%,0%);stop-opacity:0.313725;"/>
<stop offset="0.222222" style="stop-color:rgb(0%,0%,0%);stop-opacity:0.27451;"/>
<stop offset="1" style="stop-color:rgb(0%,0%,0%);stop-opacity:0;"/>
</radialGradient>
<radialGradient id="radial1" gradientUnits="userSpaceOnUse" cx="450.90894" cy="189.57936" fx="450.90894" fy="189.57936" r="21.166656" gradientTransform="matrix(-0.00000017417,0.0781325,0.140638,0.000000101539,-11.116311,-7.527479)">
<stop offset="0" style="stop-color:rgb(0%,0%,0%);stop-opacity:0.313725;"/>
<stop offset="0.222222" style="stop-color:rgb(0%,0%,0%);stop-opacity:0.27451;"/>
<stop offset="1" style="stop-color:rgb(0%,0%,0%);stop-opacity:0;"/>
</radialGradient>
<radialGradient id="radial2" gradientUnits="userSpaceOnUse" cx="450.90894" cy="189.57936" fx="450.90894" fy="189.57936" r="21.166656" gradientTransform="matrix(-0.00000017417,-0.0781325,0.140638,-0.000000101539,-11.116311,63.595334)">
<stop offset="0" style="stop-color:rgb(0%,0%,0%);stop-opacity:0.313725;"/>
<stop offset="0.222222" style="stop-color:rgb(0%,0%,0%);stop-opacity:0.27451;"/>
<stop offset="1" style="stop-color:rgb(0%,0%,0%);stop-opacity:0;"/>
</radialGradient>
<radialGradient id="radial3" gradientUnits="userSpaceOnUse" cx="450.90894" cy="189.57936" fx="450.90894" fy="189.57936" r="21.166656" gradientTransform="matrix(0.00000017417,0.0781325,-0.140638,0.000000101539,42.869345,-7.527479)">
<stop offset="0" style="stop-color:rgb(0%,0%,0%);stop-opacity:0.313725;"/>
<stop offset="0.222222" style="stop-color:rgb(0%,0%,0%);stop-opacity:0.27451;"/>
<stop offset="1" style="stop-color:rgb(0%,0%,0%);stop-opacity:0;"/>
</radialGradient>
<linearGradient id="linear1" gradientUnits="userSpaceOnUse" x1="960" y1="1695.1182" x2="960" y2="175.11812" gradientTransform="matrix(0.016538,0,0,0.016538,0,0)">
<stop offset="0" style="stop-color:rgb(74.117647%,74.117647%,74.117647%);stop-opacity:1;"/>
<stop offset="1" style="stop-color:rgb(87.843137%,87.843137%,87.843137%);stop-opacity:1;"/>
</linearGradient>
<linearGradient id="linear2" gradientUnits="userSpaceOnUse" x1="960" y1="1695.1182" x2="960" y2="175.11812" gradientTransform="matrix(0.016538,0,0,0.016538,0,0)">
<stop offset="0" style="stop-color:rgb(36.078431%,41.960784%,75.294118%);stop-opacity:1;"/>
<stop offset="1" style="stop-color:rgb(47.45098%,52.54902%,79.607843%);stop-opacity:1;"/>
</linearGradient>
<linearGradient id="linear3" gradientUnits="userSpaceOnUse" x1="960" y1="1695.1182" x2="960" y2="175.11813" gradientTransform="matrix(0.016538,0,0,0.016538,0,0)">
<stop offset="0" style="stop-color:rgb(95.686275%,26.27451%,21.176471%);stop-opacity:1;"/>
<stop offset="1" style="stop-color:rgb(93.72549%,32.54902%,31.372549%);stop-opacity:1;"/>
</linearGradient>
</defs>
<g id="surface1">
<path style=" stroke:none;fill-rule:nonzero;fill:url(#linear0);" d="M 15.214844 28.035156 L 16.539062 28.035156 L 16.539062 29.355469 L 15.214844 29.355469 Z M 15.214844 28.035156 "/>
<path style=" stroke:none;fill-rule:nonzero;fill:url(#radial0);" d="M 16.539062 28.035156 L 19.183594 28.035156 L 19.183594 26.710938 L 16.539062 26.710938 Z M 16.539062 28.035156 "/>
<path style=" stroke:none;fill-rule:nonzero;fill:url(#radial1);" d="M 15.214844 28.035156 L 12.570312 28.035156 L 12.570312 29.355469 L 15.214844 29.355469 Z M 15.214844 28.035156 "/>
<path style=" stroke:none;fill-rule:nonzero;fill:url(#radial2);" d="M 15.214844 28.035156 L 12.570312 28.035156 L 12.570312 26.710938 L 15.214844 26.710938 Z M 15.214844 28.035156 "/>
<path style=" stroke:none;fill-rule:nonzero;fill:url(#radial3);" d="M 16.539062 28.035156 L 19.183594 28.035156 L 19.183594 29.355469 L 16.539062 29.355469 Z M 16.539062 28.035156 "/>
<path style=" stroke:none;fill-rule:nonzero;fill:url(#linear1);" d="M 15.875 2.894531 C 14.042969 2.894531 12.570312 4.371094 12.570312 6.203125 L 12.570312 14.269531 C 10.210938 15.46875 8.601562 17.917969 8.601562 20.757812 C 8.601562 24.789062 11.84375 28.035156 15.875 28.035156 C 19.90625 28.035156 23.152344 24.789062 23.152344 20.757812 C 23.152344 17.917969 21.542969 15.46875 19.183594 14.269531 L 19.183594 6.203125 C 19.183594 4.371094 17.707031 2.894531 15.875 2.894531 Z M 15.875 2.894531 "/>
<path style=" stroke:none;fill-rule:nonzero;fill:url(#linear2);" d="M 15.875 4.21875 C 14.777344 4.21875 13.890625 5.105469 13.890625 6.203125 L 13.890625 15.140625 C 11.574219 15.953125 9.921875 18.15625 9.921875 20.757812 C 9.921875 24.054688 12.578125 26.710938 15.875 26.710938 C 19.175781 26.710938 21.832031 24.054688 21.832031 20.757812 C 21.832031 18.15625 20.179688 15.953125 17.859375 15.140625 L 17.859375 6.203125 C 17.859375 5.105469 16.976562 4.21875 15.875 4.21875 Z M 15.875 4.21875 "/>
<path style=" stroke:none;fill-rule:nonzero;fill:url(#linear3);" d="M 13.890625 12.824219 L 13.890625 15.140625 C 11.574219 15.953125 9.921875 18.15625 9.921875 20.757812 C 9.921875 24.054688 12.578125 26.710938 15.875 26.710938 C 19.175781 26.710938 21.832031 24.054688 21.832031 20.757812 C 21.832031 18.15625 20.179688 15.953125 17.859375 15.140625 L 17.859375 12.824219 C 16.867188 11.828125 14.882812 11.828125 13.890625 12.824219 Z M 13.890625 12.824219 "/>
<path style=" stroke:none;fill-rule:nonzero;fill:rgb(100%,100%,100%);fill-opacity:0.960784;" d="M 15.875 2.894531 C 14.042969 2.894531 12.570312 4.371094 12.570312 6.203125 L 12.570312 6.453125 C 12.570312 4.621094 14.042969 3.144531 15.875 3.144531 C 17.707031 3.144531 19.183594 4.621094 19.183594 6.453125 L 19.183594 6.203125 C 19.183594 4.371094 17.707031 2.894531 15.875 2.894531 Z M 12.570312 14.269531 C 10.210938 15.46875 8.601562 17.917969 8.601562 20.757812 C 8.601562 20.796875 8.601562 20.839844 8.601562 20.878906 C 8.648438 18.09375 10.242188 15.699219 12.570312 14.515625 Z M 19.183594 14.269531 L 19.183594 14.515625 C 21.507812 15.699219 23.105469 18.09375 23.152344 20.878906 C 23.152344 20.839844 23.152344 20.796875 23.152344 20.757812 C 23.152344 17.917969 21.542969 15.46875 19.183594 14.269531 Z M 19.183594 14.269531 "/>
<path style=" stroke:none;fill-rule:nonzero;fill:rgb(0%,0%,0%);fill-opacity:0.235294;" d="M 8.601562 20.578125 C 8.601562 20.636719 8.601562 20.699219 8.601562 20.757812 C 8.601562 24.789062 11.84375 28.035156 15.875 28.035156 C 19.90625 28.035156 23.152344 24.789062 23.152344 20.757812 C 23.152344 20.699219 23.152344 20.636719 23.152344 20.578125 C 23.050781 24.519531 19.84375 27.664062 15.875 27.664062 C 11.910156 27.664062 8.703125 24.519531 8.601562 20.578125 Z M 8.601562 20.578125 "/>
<path style="fill:none;stroke-width:11.338583;stroke-linecap:round;stroke-linejoin:round;stroke:rgb(12.941176%,12.941176%,12.941176%);stroke-opacity:1;stroke-miterlimit:4;" d="M 959.908345 175.022658 C 849.131521 175.022658 760.084905 264.305472 760.084905 375.082296 L 760.084905 862.831 C 617.421362 935.343762 520.107819 1083.439857 520.107819 1255.155745 C 520.107819 1498.911998 716.152092 1695.192469 959.908345 1695.192469 C 1203.664598 1695.192469 1399.94507 1498.911998 1399.94507 1255.155745 C 1399.94507 1083.439857 1302.631527 935.343762 1159.967983 862.831 L 1159.967983 375.082296 C 1159.967983 264.305472 1070.68517 175.022658 959.908345 175.022658 Z M 959.908345 175.022658 " transform="matrix(0.016538,0,0,0.016538,0,0)"/>
<path style=" stroke:none;fill-rule:nonzero;fill:rgb(100%,96.862745%,96.862745%);fill-opacity:1;" d="M 9.925781 20.910156 C 9.921875 20.957031 9.921875 21.003906 9.921875 21.050781 C 9.921875 24.347656 12.578125 27.003906 15.875 27.003906 C 19.175781 27.003906 21.832031 24.347656 21.832031 21.050781 C 21.832031 21.003906 21.828125 20.957031 21.828125 20.910156 C 21.753906 24.144531 19.128906 26.722656 15.875 26.722656 C 12.625 26.722656 10 24.144531 9.925781 20.910156 Z M 9.925781 20.910156 "/>
<path style=" stroke:none;fill-rule:nonzero;fill:rgb(0%,0%,0%);fill-opacity:0.235294;" d="M 15.875 4.21875 C 14.777344 4.21875 13.890625 5.105469 13.890625 6.203125 L 13.890625 6.535156 C 13.890625 5.433594 14.777344 4.550781 15.875 4.550781 C 16.976562 4.550781 17.859375 5.433594 17.859375 6.535156 L 17.859375 6.203125 C 17.859375 5.105469 16.976562 4.21875 15.875 4.21875 Z M 13.890625 15.140625 C 11.574219 15.953125 9.921875 18.15625 9.921875 20.757812 C 9.921875 20.8125 9.921875 20.871094 9.925781 20.925781 C 9.992188 18.394531 11.625 16.265625 13.890625 15.46875 Z M 17.859375 15.140625 L 17.859375 15.46875 C 20.128906 16.265625 21.761719 18.394531 21.828125 20.925781 C 21.828125 20.871094 21.832031 20.8125 21.832031 20.757812 C 21.832031 18.15625 20.179688 15.953125 17.859375 15.140625 Z M 17.859375 15.140625 "/>
<path style="fill:none;stroke-width:11.338583;stroke-linecap:round;stroke-linejoin:round;stroke:rgb(12.941176%,12.941176%,12.941176%);stroke-opacity:1;stroke-miterlimit:4;" d="M 959.908345 255.093753 C 893.53673 255.093753 839.919802 308.710681 839.919802 375.082296 L 839.919802 915.503137 C 699.854436 964.632304 599.942716 1097.84793 599.942716 1255.155745 C 599.942716 1454.506789 760.557301 1615.121375 959.908345 1615.121375 C 1159.495588 1615.121375 1320.110173 1454.506789 1320.110173 1255.155745 C 1320.110173 1097.84793 1220.198453 964.632304 1079.896889 915.503137 L 1079.896889 375.082296 C 1079.896889 308.710681 1026.516159 255.093753 959.908345 255.093753 Z M 959.908345 255.093753 " transform="matrix(0.016538,0,0,0.016538,0,0)"/>
</g>
</svg>
